X: 1240
T: An Dro Mouy'ton Mayo
R: reel
M: 4/4
K: Bminor
"Bm"B2dc B2BA|Bedc B2BA|"c"=cega "Bm"f2ed|"c"=cege "d"fed^c|
"Bm"B2dc B2BA|Bedc B2BA|"c"=cega "Bm"f2ed|"A"cB"G"AG "f7"F4:|
|:"d"defd "A/e"e2cA|"d"dagf "A/c#"edcA|"Bm"B2ff edcB|"A/c"ABce "d"d2cd|
"d"defd "A/e"e2cA|"d"dagf "A/c#"edcA|"Bm"B2ff edcB|"A"AA"G"GE "f7"F4:|

